Origami/64x64/apps/echonest.svg

<svg width="64" height="64" version="1" xmlns="http://www.w3.org/2000/svg">
 <path d="M 59.958,31.828 A 28,28 0 0 1 32,59 28,28 0 0 1 4.044,32.172 28,28 0 0 0 4,33 28,28 0 0 0 32,61 28,28 0 0 0 60,33 28,28 0 0 0 59.958,31.828 Z" style="opacity:.2"/>
 <path d="M 60,32 A 28,28 0 0 1 32,60 28,28 0 0 1 4,32 28,28 0 0 1 32,4 28,28 0 0 1 60,32 Z" style="fill:#4f4f4f"/>
 <path d="M 31.998047 4 A 28 28 0 0 0 4 32 A 28 28 0 0 0 4.0175781 32.492188 A 28 28 0 0 1 31.998047 5 L 32 5 A 28 28 0 0 1 59.972656 32.5 A 28 28 0 0 0 59.998047 32 A 28 28 0 0 0 32 4 L 31.998047 4 z" style="fill:#ffffff;opacity:.1"/>
 <g transform="matrix(2,0,0,2,0,1)" style="opacity:.2">
  <path d="m16 6a10 10 0 0 0 -10 10 10 10 0 0 0 10 10v-3a7 7 0 0 1 -7 -7 7 7 0 0 1 7 -7 7 7 0 0 1 7 7h3a10 10 0 0 0 -10 -10z"/>
  <path d="m16 11a5 5 0 0 0 -5 5h3a2 2 0 0 1 2 -2 2 2 0 0 1 2 2h3a5 5 0 0 0 -5 -5z"/>
 </g>
 <path d="m32 12a20 20 0 0 0 -20 20 20 20 0 0 0 20 20v-6a14 14 0 0 1 -14 -14 14 14 0 0 1 14 -14 14 14 0 0 1 14 14h6a20 20 0 0 0 -20 -20z" style="fill:#ffffff"/>
 <path d="m32 22a10 10 0 0 0 -10 10h6a4 4 0 0 1 4 -4 4 4 0 0 1 4 4h6a10 10 0 0 0 -10 -10z" style="fill:#00adef"/>
</svg>

<svg xmlns="http://www.w3.org/2000/svg" width="64" height="64" version="1">
 <path style="opacity:0.2" d="M 59.958,31.828 A 28,28 0 0 1 32,59 28,28 0 0 1 4.044,32.172 28,28 0 0 0 4,33 28,28 0 0 0 32,61 28,28 0 0 0 60,33 28,28 0 0 0 59.958,31.828 Z"/>
 <path style="fill:#4f4f4f" d="M 60,32 A 28,28 0 0 1 32,60 28,28 0 0 1 4,32 28,28 0 0 1 32,4 28,28 0 0 1 60,32 Z"/>
 <path style="opacity:0.1;fill:#ffffff" d="M 31.998047 4 A 28 28 0 0 0 4 32 A 28 28 0 0 0 4.0175781 32.492188 A 28 28 0 0 1 31.998047 5 L 32 5 A 28 28 0 0 1 59.972656 32.5 A 28 28 0 0 0 59.998047 32 A 28 28 0 0 0 32 4 L 31.998047 4 z"/>
 <g style="opacity:0.2" transform="matrix(2,0,0,2,0,1)">
  <path d="M 16,6 A 10,10 0 0 0 6,16 10,10 0 0 0 16,26 l 0,-3 a 7,7 0 0 1 -7,-7 7,7 0 0 1 7,-7 7,7 0 0 1 7,7 l 3,0 A 10,10 0 0 0 16,6 Z"/>
  <path d="m 16,11 a 5,5 0 0 0 -5,5 l 3,0 a 2,2 0 0 1 2,-2 2,2 0 0 1 2,2 l 3,0 a 5,5 0 0 0 -5,-5 z"/>
 </g>
 <path style="fill:#ffffff" d="M 32,12 A 20,20 0 0 0 12,32 20,20 0 0 0 32,52 l 0,-6 A 14,14 0 0 1 18,32 14,14 0 0 1 32,18 14,14 0 0 1 46,32 l 6,0 A 20,20 0 0 0 32,12 Z"/>
 <path style="fill:#00adef" d="M 32,22 A 10,10 0 0 0 22,32 l 6,0 a 4,4 0 0 1 4,-4 4,4 0 0 1 4,4 l 6,0 A 10,10 0 0 0 32,22 Z"/>
</svg>
